icons/svg/seamark/topmark_oblique_green_conepointupoversphere.svg

<?xml version="1.0" encoding="UTF-8" standalone="no"?>
<svg
   xmlns:dc="http://purl.org/dc/elements/1.1/"
   xmlns:cc="http://creativecommons.org/ns#"
   xmlns:rdf="http://www.w3.org/1999/02/22-rdf-syntax-ns#"
   xmlns:svg="http://www.w3.org/2000/svg"
   xmlns="http://www.w3.org/2000/svg"
   xmlns:sodipodi="http://sodipodi.sourceforge.net/DTD/sodipodi-0.dtd"
   xmlns:inkscape="http://www.inkscape.org/namespaces/inkscape"
   width="580"
   height="580"
   id="svg2"
   version="1.1"
   inkscape:version="0.92.3 (2405546, 2018-03-11)"
   sodipodi:docname="topmark_oblique_green_conepointupoversphere.svg">
  <defs
     id="defs13">
    <inkscape:path-effect
       effect="gears"
       id="path-effect3774"
       is_visible="true"
       teeth="6"
       phi="-1.2" />
    <inkscape:path-effect
       effect="bend_path"
       id="path-effect3772"
       is_visible="false"
       bendpath="m 95.790098,316.51174 c 144.429032,-206.42506 223.313032,-11.7428 339.548092,0"
       prop_scale="1.19"
       scale_y_rel="false"
       vertical="false"
       bendpath-nodetypes="cc" />
  </defs>
  <sodipodi:namedview
     pagecolor="#ffffff"
     bordercolor="#666666"
     borderopacity="1"
     objecttolerance="10"
     gridtolerance="10"
     guidetolerance="10"
     inkscape:pageopacity="0"
     inkscape:pageshadow="2"
     inkscape:window-width="1920"
     inkscape:window-height="1006"
     id="namedview11"
     showgrid="false"
     inkscape:zoom="0.8137931"
     inkscape:cx="223.78456"
     inkscape:cy="384.34104"
     inkscape:window-x="1920"
     inkscape:window-y="0"
     inkscape:window-maximized="1"
     inkscape:current-layer="svg2" />
  <metadata
     id="metadata2975">image/svg+xmlen<rdf:RDF>
  <cc:Work
     rdf:about="">
    <dc:format>image/svg+xml</dc:format>
    <dc:type
       rdf:resource="http://purl.org/dc/dcmitype/StillImage" />
    <dc:title />
  </cc:Work>
</rdf:RDF>
</metadata>
  <path
     sodipodi:type="inkscape:offset"
     inkscape:radius="2.7156403"
     inkscape:original="M 394.33203 -0.25195312 A 16.396058 16.396058 0 0 0 381.73242 4.7597656 L 316.83008 72.253906 A 16.396058 16.396058 0 0 0 325.20312 99.646484 L 326.54297 99.933594 C 323.3932 102.08863 320.41741 104.49666 317.7168 107.19727 C 306.03757 118.8765 299.23814 135.29167 299.23828 151.80859 A 16.396058 16.396058 0 0 0 299.23828 151.8125 C 299.24218 171.72653 309.71581 191.02271 325.67773 202.80078 L 253.74023 516.10742 A 16.396058 16.396058 0 0 0 266.04883 535.75391 L 289.66992 541.17773 A 16.396058 16.396058 0 0 0 309.39062 528.53906 L 374.9082 213.58203 C 386.93385 211.0862 398.24898 205.1104 406.93945 196.41992 C 418.61869 184.74069 425.41811 168.32552 425.41797 151.80859 A 16.396058 16.396058 0 0 0 425.41797 151.79883 C 425.41119 140.24416 421.79648 128.92158 415.74023 119.0957 L 419.44922 119.89258 A 16.396058 16.396058 0 0 0 438.44141 98.664062 L 409.09766 10.923828 A 16.396058 16.396058 0 0 0 394.33203 -0.25195312 z "
     style="color:#000000;font-style:normal;font-variant:normal;font-weight:normal;font-stretch:normal;font-size:medium;line-height:normal;font-family:Sans;-inkscape-font-specification:Sans;text-indent:0;text-align:start;text-decoration:none;text-decoration-line:none;letter-spacing:normal;word-spacing:normal;text-transform:none;writing-mode:lr-tb;direction:ltr;baseline-shift:baseline;text-anchor:start;display:inline;overflow:visible;visibility:visible;fill:#8d8d8d;fill-opacity:1;stroke:#a35151;stroke-width:0;stroke-linecap:round;stroke-linejoin:miter;stroke-miterlimit:4;stroke-dasharray:none;stroke-opacity:1;marker:none;enable-background:accumulate;font-variant-east_asian:normal;opacity:0.42608696;vector-effect:none;stroke-dashoffset:0"
     id="path3761-7"
     d="m 394.46094,-2.9648438 c -5.4254,-0.2591077 -10.9204,1.9269889 -14.68555,5.8417969 L 314.87305,70.371094 c -4.69019,4.878864 -6.4783,12.359975 -4.5,18.832031 1.57334,5.147235 5.51603,9.397088 10.37695,11.675785 -1.7173,1.37934 -3.3841,2.82941 -4.95312,4.39843 -12.20623,12.20623 -19.27359,29.26903 -19.27344,46.53125 0,0.002 0,0.002 0,0.004 0.004,20.25077 10.31345,39.64829 26.13476,52.00586 L 251.09375,515.5 c -1.11877,4.87568 -0.2242,10.18272 2.43164,14.42188 2.65585,4.23915 7.0407,7.35815 11.91602,8.47851 l 23.62109,5.42383 c 4.93997,1.13412 10.32056,0.1997 14.58789,-2.53516 4.26733,-2.73486 7.36544,-7.23516 8.39844,-12.19726 l 65.18359,-313.35352 c 11.86301,-2.80576 22.97903,-8.75051 31.62696,-17.39844 12.20623,-12.20622 19.27358,-29.26901 19.27343,-46.53125 0,-0.004 0,-0.006 0,-0.01 a 2.7159119,2.7159119 0 0 0 0,-0.002 c -0.006,-10.2056 -2.80422,-20.12117 -7.4082,-29.11329 6.03563,0.65473 12.35315,-1.54341 16.41016,-6.07812 4.47036,-4.99675 6.00826,-12.44396 3.88281,-18.802736 L 411.67383,10.0625 C 409.24825,2.811674 402.09798,-2.5994959 394.46094,-2.9648438 Z" />
  <path
     style="color:#000000;font-style:normal;font-variant:normal;font-weight:normal;font-stretch:normal;font-size:medium;line-height:normal;font-family:Sans;-inkscape-font-specification:Sans;text-indent:0;text-align:start;text-decoration:none;text-decoration-line:none;letter-spacing:normal;word-spacing:normal;text-transform:none;writing-mode:lr-tb;direction:ltr;baseline-shift:baseline;text-anchor:start;display:inline;overflow:visible;visibility:visible;fill:#000000;fill-opacity:1;stroke:#a35151;stroke-width:0;stroke-linecap:round;stroke-linejoin:miter;stroke-miterlimit:4;stroke-dasharray:none;stroke-opacity:1;marker:none;enable-background:accumulate"
     d="M 375.85572,57.524646 269.71815,519.77477 293.33947,525.19938 389.94922,60.776996 Z"
     id="path3761"
     inkscape:connector-curvature="0"
     sodipodi:nodetypes="ccccc" />
  <path
     sodipodi:type="arc"
     style="color:#000000;fill:#00df0c;fill-opacity:1;fill-rule:nonzero;stroke:none;stroke-width:1;marker:none;visibility:visible;display:inline;overflow:visible;enable-background:accumulate;font-variant-east_asian:normal;opacity:1;vector-effect:none;stroke-linecap:butt;stroke-linejoin:miter;stroke-miterlimit:4;stroke-dasharray:none;stroke-dashoffset:0;stroke-opacity:1"
     id="path3760-3"
     sodipodi:cx="293.68643"
     sodipodi:cy="116.73729"
     sodipodi:rx="46.694916"
     sodipodi:ry="46.694916"
     d="m 340.38135,116.73729 a 46.694916,46.694916 0 1 1 -93.38983,0 46.694916,46.694916 0 1 1 93.38983,0 z"
     transform="translate(68.641607,35.071745)" />
  <path
     inkscape:connector-curvature="0"
     style="fill:#00df0c;fill-opacity:1;stroke:none;stroke-width:1;font-variant-east_asian:normal;opacity:1;vector-effect:none;stroke-linecap:butt;stroke-linejoin:miter;stroke-miterlimit:4;stroke-dasharray:none;stroke-dashoffset:0;stroke-opacity:1;marker:none"
     d="M 328.64724,83.616639 422.89312,103.86375 393.54906,16.122443"
     id="path3822-6-6"
     sodipodi:nodetypes="ccc" />
</svg>

<svg width="580" height="580" viewBox="0 0 580 580" fill="none" xmlns="http://www.w3.org/2000/svg">
<g clip-path="url(#clip0)">
<path opacity="0.426087" d="M394.461 -2.96563C389.036 -3.22474 383.541 -1.03864 379.776 2.87617L314.873 70.3703C310.183 75.2492 308.395 82.7303 310.373 89.2023C311.947 94.3496 315.889 98.5994 320.75 100.878C319.033 102.257 317.366 103.708 315.797 105.277C303.591 117.483 296.523 134.546 296.524 151.808C296.524 151.81 296.524 151.81 296.524 151.812C296.528 172.063 306.837 191.46 322.658 203.818L251.094 515.499C249.975 520.375 250.87 525.682 253.526 529.921C256.181 534.16 260.566 537.279 265.442 538.4L289.063 543.823C294.003 544.958 299.383 544.023 303.651 541.288C307.918 538.553 311.016 534.053 312.049 529.091L377.233 215.738C389.096 212.932 400.212 206.987 408.86 198.339C421.066 186.133 428.133 169.07 428.133 151.808C428.133 151.804 428.133 151.802 428.133 151.798C428.133 151.797 428.133 151.796 428.133 151.796C428.127 141.59 425.329 131.675 420.725 122.683C426.76 123.337 433.078 121.139 437.135 116.604C441.605 111.608 443.143 104.16 441.018 97.8017L411.674 10.0617C409.248 2.81089 402.098 -2.60028 394.461 -2.96563Z" fill="#8D8D8D"/>
<path d="M375.856 57.5254L269.718 519.776L293.34 525.2L389.949 60.7777L375.856 57.5254Z" fill="black"/>
<path d="M409.023 151.808C409.024 157.941 407.818 164.014 405.471 169.68C403.125 175.347 399.686 180.496 395.35 184.833C391.014 189.17 385.866 192.61 380.2 194.957C374.534 197.305 368.461 198.513 362.328 198.513C356.195 198.513 350.123 197.305 344.457 194.957C338.791 192.61 333.643 189.17 329.307 184.833C324.97 180.496 321.531 175.347 319.185 169.68C316.839 164.014 315.632 157.941 315.633 151.808C315.632 145.675 316.839 139.602 319.185 133.936C321.531 128.269 324.97 123.121 329.307 118.784C333.643 114.447 338.791 111.006 344.457 108.659C350.123 106.312 356.195 105.104 362.328 105.104C368.461 105.104 374.534 106.312 380.2 108.659C385.866 111.006 391.014 114.447 395.35 118.784C399.686 123.121 403.125 128.269 405.471 133.936C407.818 139.602 409.024 145.675 409.023 151.808V151.808Z" fill="#00DF0C"/>
<path d="M328.647 83.6172L422.893 103.864L393.549 16.123" fill="#00DF0C"/>
</g>
<defs>
<clipPath id="clip0">
<path d="M0 0H580V580H0V0Z" fill="white"/>
</clipPath>
</defs>
</svg>
